svgs/1F921.svg

<svg xmlns="http://www.w3.org/2000/svg" version="1.1" xmlns:xlink="http://www.w3.org/1999/xlink" preserveAspectRatio="none" x="0px" y="0px" width="72px" height="72px" viewBox="0 0 72 72">
<defs>
<radialGradient id="Gradient_1" gradientUnits="userSpaceOnUse" cx="0" cy="0" r="9.650000000000006" fx="0" fy="0" gradientTransform="matrix( 0.9999999999999996, 0, 0, 1.0116580310880825, 64.7,45) " spreadMethod="pad">
<stop  offset="0%" stop-color="#FF8A80"/>

<stop  offset="100%" stop-color="#FFE6B3"/>
</radialGradient>

<g id="Layer1_0_FILL">
<path fill="#FFE6B3" stroke="none" d="
M 35.9 5.45
Q 13.6 5.45 4.85 26.05 0.05 37.3 0.05 52.5 0.05 58.35 10.6 62.45 21.05 66.6 35.9 66.6 50.8 66.6 61.3 62.45 71.8 58.35 71.8 52.5 71.8 37.3 67 26.05 58.25 5.45 35.9 5.45 Z"/>
</g>

<g id="Layer1_1_MEMBER_0_FILL">
<path fill="url(#Gradient_1)" stroke="none" d="
M 73.8 49.4
Q 75.55 45.6 74.2 41.75 72.75 37.9 69 36.1 65.2 34.4 61.35 35.75 57.5 37.15 55.75 40.95 54 44.7 55.4 48.6 56.85 52.45 60.6 54.2 64.35 55.9 68.15 54.5 72.05 53.15 73.8 49.4 Z"/>
</g>

<g id="Layer1_1_MEMBER_1_FILL">
<path fill="url(#Gradient_1)" stroke="none" d="
M 73.8 49.4
Q 75.55 45.6 74.2 41.75 72.75 37.9 69 36.1 65.2 34.4 61.35 35.75 57.5 37.15 55.75 40.95 54 44.7 55.4 48.6 56.85 52.45 60.6 54.2 64.35 55.9 68.15 54.5 72.05 53.15 73.8 49.4 Z"/>
</g>

<g id="Layer1_2_MEMBER_0_FILL">
<path fill="#2F2F2F" stroke="none" d="
M 47.8 44.7
Q 45.35 41.85 42 41.9 38.65 41.95 36.25 44.8 33.9 47.7 33.95 51.7 34 55.7 36.4 58.55 38.85 61.35 42.2 61.3 45.55 61.25 47.9 58.4 50.25 55.55 50.25 51.55 50.2 47.5 47.8 44.7 Z"/>
</g>

<g id="Layer1_2_MEMBER_1_FILL">
<path fill="#2F2F2F" stroke="none" d="
M 45.3 32.9
Q 46.65 34.5 48.55 34.5 50.45 34.5 51.8 32.9 53.1 31.3 53.1 29.05 53.1 26.8 51.75 25.15 50.4 23.55 48.5 23.6 46.65 23.6 45.3 25.2 43.95 26.8 43.95 29.05 43.95 31.3 45.3 32.9 Z"/>
</g>

<g id="Layer1_3_FILL">
<path fill="#DB4437" stroke="none" d="
M 45 39.15
Q 43.8751953125 39.2548828125 42.75 39.3 39.8755859375 39.4751953125 37 39.5 35.8751953125 39.508203125 34.75 39.5 31.9005859375 39.46953125 29.05 39.3 27.9251953125 39.2548828125 26.8 39.15 23.9505859375 38.978125 21.1 38.65 17.02578125 38.178125 12.95 37.45 12.3 37.35 11.8 37.75 11.3 38.2 11.35 38.85 11.65 46.45 18.65 51.5 25.65 56.6 35.85 56.6
L 36 56.6
Q 46.15 56.6 53.15 51.5 60.2 46.45 60.5 38.85 60.55 38.25 60 37.75 59.55 37.35 58.8 37.45 55.8755859375 37.9736328125 52.95 38.35 51.8251953125 38.51796875 50.7 38.65 47.8505859375 38.9779296875 45 39.15
M 42.75 42.1
Q 43.875 42.0546875 45 41.95 47.85 41.776953125 50.7 41.45 51.825 41.3212890625 52.95 41.15 55.2 40.8759765625 57.45 40.5
L 57.45 40.55
Q 57.13671875 42.1337890625 56.45 43.55
L 54.2 46.8
Q 53.6197265625 47.4455078125 52.95 48 51.9337890625 48.9087890625 50.7 49.7 50.5029296875 49.82578125 50.3 49.95 49.2751953125 50.5884765625 48.2 51.1
L 47.05 51.65
Q 46.051953125 52.0662109375 45 52.4 43.9017578125 52.759375 42.75 53 42.4455078125 53.09453125 42.1 53.15
L 38.45 53.65
Q 37.73671875 53.70625 37 53.7 36.504296875 53.75 36 53.75
L 35.85 53.75
Q 35.2953125 53.75 34.75 53.7 31.7533203125 53.6384765625 29.05 53 27.8984375 52.7578125 26.8 52.4 23.9732421875 51.4908203125 21.5 49.95 21.297265625 49.8259765625 21.1 49.7 19.8654296875 48.9083984375 18.85 48 15.865234375 45.4068359375 14.75 42.05 14.5046875 41.3169921875 14.35 40.55
L 14.35 40.5
Q 16.561328125 40.86953125 18.75 41.15 18.8111328125 41.15859375 18.85 41.15
L 18.85 41.15
Q 19.975 41.3236328125 21.1 41.45 23.9501953125 41.7771484375 26.8 41.95 27.925 42.0546875 29.05 42.1 31.9001953125 42.26875 34.75 42.3 35.875 42.3080078125 37 42.3 39.875 42.2744140625 42.75 42.1 Z"/>

<path fill="#FFFFFF" stroke="none" d="
M 37 53.7
Q 37.73671875 53.70625 38.45 53.65
L 42.1 53.15
Q 42.4455078125 53.09453125 42.75 53
L 42.75 42.1
Q 39.875 42.2744140625 37 42.3
L 37 53.7
M 34.75 42.3
Q 31.9001953125 42.26875 29.05 42.1
L 29.05 53
Q 31.7533203125 53.6384765625 34.75 53.7
L 34.75 42.3
M 26.8 41.95
Q 23.9501953125 41.7771484375 21.1 41.45
L 21.1 49.7
Q 21.297265625 49.8259765625 21.5 49.95 23.9732421875 51.4908203125 26.8 52.4
L 26.8 41.95
M 18.85 41.15
L 18.85 41.15
Q 18.8111328125 41.15859375 18.75 41.15 16.561328125 40.86953125 14.35 40.5
L 14.35 40.55
Q 14.5046875 41.3169921875 14.75 42.05 15.865234375 45.4068359375 18.85 48
L 18.85 41.15
M 50.7 41.45
Q 47.85 41.776953125 45 41.95
L 45 52.4
Q 46.051953125 52.0662109375 47.05 51.65
L 48.2 51.1
Q 49.2751953125 50.5884765625 50.3 49.95 50.5029296875 49.82578125 50.7 49.7
L 50.7 41.45
M 57.45 40.55
L 57.45 40.5
Q 55.2 40.8759765625 52.95 41.15
L 52.95 48
Q 53.6197265625 47.4455078125 54.2 46.8
L 56.45 43.55
Q 57.13671875 42.1337890625 57.45 40.55 Z"/>

<path fill="#2F2F2F" stroke="none" d="
M 37 42.3
Q 35.875 42.3080078125 34.75 42.3
L 34.75 53.7
Q 35.2953125 53.75 35.85 53.75
L 36 53.75
Q 36.504296875 53.75 37 53.7
L 37 42.3
M 29.05 42.1
Q 27.925 42.0546875 26.8 41.95
L 26.8 52.4
Q 27.8984375 52.7578125 29.05 53
L 29.05 42.1
M 18.85 41.15
L 18.85 48
Q 19.8654296875 48.9083984375 21.1 49.7
L 21.1 41.45
Q 19.975 41.3236328125 18.85 41.15
M 52.95 41.15
Q 51.825 41.3212890625 50.7 41.45
L 50.7 49.7
Q 51.9337890625 48.9087890625 52.95 48
L 52.95 41.15
M 45 41.95
Q 43.875 42.0546875 42.75 42.1
L 42.75 53
Q 43.9017578125 52.759375 45 52.4
L 45 41.95 Z"/>
</g>

<g id="Layer0_0_FILL">
<path fill="#DB4437" stroke="none" d="
M 63.8 71.35
Q 59.75 71.35 56.9 74.2 54 77.05 54 81.1 54 85.15 56.9 88.05 59.75 90.9 63.8 90.9 67.85 90.9 70.7 88.05 73.55 85.15 73.55 81.1 73.55 77.05 70.7 74.2 67.85 71.35 63.8 71.35 Z"/>
</g>

<g id="Layer0_1_FILL">
<path fill="#DB4437" stroke="none" d="
M 22.15 12.25
Q 22.2 9.85 20.35 8 18.55 6.2 16.05 6.15 13.55 6.15 11.7 8 11.15 8.55 10.8 9.15 8.4 9.45 6.45 11.4 4.6 13.25 4.25 15.7 3.65 16.05 3.1 16.6 1.3 18.4 1.25 20.95 1.3 23.45 3.1 25.25 4.95 27.1 7.35 27.05 9.9 27.05 11.7 25.25 12.35 24.65 12.7 24 15.15 23.65 16.95 21.85 18.8 20 19.05 17.65 19.75 17.25 20.35 16.6 22.2 14.75 22.15 12.25
M 65.55 11.4
Q 63.6 9.45 61.2 9.15 60.85 8.55 60.3 8 58.45 6.15 55.95 6.15 53.45 6.2 51.65 8 49.8 9.85 49.85 12.25 49.8 14.75 51.65 16.6 52.25 17.25 52.95 17.65 53.2 20 55.05 21.85 56.85 23.65 59.3 24 59.65 24.65 60.3 25.25 62.1 27.05 64.65 27.05 67.05 27.1 68.9 25.25 70.7 23.45 70.75 20.95 70.7 18.4 68.9 16.6 68.35 16.05 67.75 15.7 67.4 13.25 65.55 11.4 Z"/>
</g>
</defs>

<g id="Layer_1">
<g transform="matrix( 1, 0, 0, 1, 0,0) ">
<use xlink:href="#Layer1_0_FILL"/>
</g>

<g transform="matrix( 1, 0, 0, 1, -4.5,-5) ">
<use xlink:href="#Layer1_1_MEMBER_0_FILL"/>
</g>

<g transform="matrix( 1, 0, 0, 1, -53.05,-5) ">
<use xlink:href="#Layer1_1_MEMBER_1_FILL"/>
</g>

<g transform="matrix( 0.5625, 0, 0, 0.6811065673828125, -0.1,-8.1) ">
<use xlink:href="#Layer1_2_MEMBER_0_FILL"/>
</g>

<g transform="matrix( 1, 0, 0, 1.21087646484375, -0.1,-8.1) ">
<use xlink:href="#Layer1_2_MEMBER_1_FILL"/>
</g>

<g transform="matrix( 1, 0, 0, 1, 0,0) ">
<use xlink:href="#Layer1_3_FILL"/>
</g>
</g>

<g transform="matrix( 0.5, 0, 0, 0.5, 4.1,-6.7) ">
<use xlink:href="#Layer0_0_FILL"/>
</g>

<g transform="matrix( 1, 0, 0, 1, 0,0) ">
<use xlink:href="#Layer0_1_FILL"/>
</g>
</svg>

<svg xmlns="http://www.w3.org/2000/svg" xmlns:xlink="http://www.w3.org/1999/xlink" preserveAspectRatio="none" viewBox="0 0 72 72"><defs><radialGradient id="a" cx="0" cy="0" r="9.65" fx="0" fy="0" gradientTransform="matrix(1 0 0 1.01166 64.7 45)" gradientUnits="userSpaceOnUse" spreadMethod="pad"><stop offset="0%" stop-color="#FF8A80"/><stop offset="100%" stop-color="#FFE6B3"/></radialGradient><path id="b" fill="#FFE6B3" d="M35.9 5.45q-22.3 0-31.05 20.6Q.05 37.3.05 52.5q0 5.85 10.55 9.95 10.45 4.15 25.3 4.15 14.9 0 25.4-4.15 10.5-4.1 10.5-9.95 0-15.2-4.8-26.45-8.75-20.6-31.1-20.6z"/><path id="c" fill="url(#a)" d="M73.8 49.4q1.75-3.8.4-7.65-1.45-3.85-5.2-5.65-3.8-1.7-7.65-.35-3.85 1.4-5.6 5.2Q54 44.7 55.4 48.6q1.45 3.85 5.2 5.6 3.75 1.7 7.55.3 3.9-1.35 5.65-5.1z"/><path id="d" fill="url(#a)" d="M73.8 49.4q1.75-3.8.4-7.65-1.45-3.85-5.2-5.65-3.8-1.7-7.65-.35-3.85 1.4-5.6 5.2Q54 44.7 55.4 48.6q1.45 3.85 5.2 5.6 3.75 1.7 7.55.3 3.9-1.35 5.65-5.1z"/><path id="e" fill="#2F2F2F" d="M47.8 44.7q-2.45-2.85-5.8-2.8-3.35.05-5.75 2.9-2.35 2.9-2.3 6.9.05 4 2.45 6.85 2.45 2.8 5.8 2.75 3.35-.05 5.7-2.9t2.35-6.85q-.05-4.05-2.45-6.85z"/><path id="f" fill="#2F2F2F" d="M45.3 32.9q1.35 1.6 3.25 1.6t3.25-1.6q1.3-1.6 1.3-3.85t-1.35-3.9q-1.35-1.6-3.25-1.55-1.85 0-3.2 1.6t-1.35 3.85q0 2.25 1.35 3.85z"/><g id="g"><path fill="#DB4437" d="M45 39.15q-1.125.105-2.25.15-2.874.175-5.75.2-1.125.008-2.25 0-2.85-.03-5.7-.2-1.125-.045-2.25-.15-2.85-.172-5.7-.5-4.074-.472-8.15-1.2-.65-.1-1.15.3-.5.45-.45 1.1.3 7.6 7.3 12.65 7 5.1 17.2 5.1H36q10.15 0 17.15-5.1 7.05-5.05 7.35-12.65.05-.6-.5-1.1-.45-.4-1.2-.3-2.924.524-5.85.9-1.125.168-2.25.3-2.85.328-5.7.5m-2.25 2.95q1.125-.045 2.25-.15 2.85-.173 5.7-.5 1.125-.129 2.25-.3 2.25-.274 4.5-.65v.05q-.313 1.584-1 3L54.2 46.8q-.58.646-1.25 1.2-1.016.909-2.25 1.7-.197.126-.4.25-1.025.638-2.1 1.15l-1.15.55q-.998.416-2.05.75-1.098.36-2.25.6-.304.095-.65.15l-3.65.5q-.713.056-1.45.05-.496.05-1 .05h-.15q-.555 0-1.1-.05-2.997-.062-5.7-.7-1.152-.242-2.25-.6-2.827-.91-5.3-2.45-.203-.124-.4-.25-1.235-.792-2.25-1.7-2.985-2.593-4.1-5.95-.245-.733-.4-1.5v-.05q2.211.37 4.4.65.061.009.1 0 1.125.174 2.25.3 2.85.327 5.7.5 1.125.105 2.25.15 2.85.169 5.7.2 1.125.008 2.25 0 2.875-.026 5.75-.2z"/><path fill="#FFF" d="M37 53.7q.737.006 1.45-.05l3.65-.5q.346-.055.65-.15V42.1q-2.875.174-5.75.2v11.4m-2.25-11.4q-2.85-.031-5.7-.2V53q2.703.638 5.7.7V42.3m-7.95-.35q-2.85-.173-5.7-.5v8.25q.197.126.4.25 2.473 1.54 5.3 2.45V41.95m-7.95-.8q-.039.009-.1 0-2.189-.28-4.4-.65v.05q.155.767.4 1.5 1.115 3.357 4.1 5.95v-6.85m31.85.3q-2.85.327-5.7.5V52.4q1.052-.334 2.05-.75l1.15-.55q1.075-.512 2.1-1.15.203-.124.4-.25v-8.25m6.75-.9v-.05q-2.25.376-4.5.65V48q.67-.554 1.25-1.2l2.25-3.25q.687-1.416 1-3z"/><path fill="#2F2F2F" d="M37 42.3q-1.125.008-2.25 0v11.4q.545.05 1.1.05H36q.504 0 1-.05V42.3m-7.95-.2q-1.125-.045-2.25-.15V52.4q1.098.358 2.25.6V42.1m-10.2-.95V48q1.015.908 2.25 1.7v-8.25q-1.125-.126-2.25-.3m34.1 0q-1.125.171-2.25.3v8.25q1.234-.791 2.25-1.7v-6.85m-7.95.8q-1.125.105-2.25.15V53q1.152-.24 2.25-.6V41.95z"/></g><path id="h" fill="#DB4437" d="M63.8 71.35q-4.05 0-6.9 2.85-2.9 2.85-2.9 6.9 0 4.05 2.9 6.95 2.85 2.85 6.9 2.85 4.05 0 6.9-2.85 2.85-2.9 2.85-6.95 0-4.05-2.85-6.9-2.85-2.85-6.9-2.85z"/><path id="i" fill="#DB4437" d="M22.15 12.25q.05-2.4-1.8-4.25-1.8-1.8-4.3-1.85-2.5 0-4.35 1.85-.55.55-.9 1.15-2.4.3-4.35 2.25-1.85 1.85-2.2 4.3-.6.35-1.15.9-1.8 1.8-1.85 4.35.05 2.5 1.85 4.3 1.85 1.85 4.25 1.8 2.55 0 4.35-1.8.65-.6 1-1.25 2.45-.35 4.25-2.15 1.85-1.85 2.1-4.2.7-.4 1.3-1.05 1.85-1.85 1.8-4.35m43.4-.85Q63.6 9.45 61.2 9.15q-.35-.6-.9-1.15-1.85-1.85-4.35-1.85-2.5.05-4.3 1.85-1.85 1.85-1.8 4.25-.05 2.5 1.8 4.35.6.65 1.3 1.05.25 2.35 2.1 4.2 1.8 1.8 4.25 2.15.35.65 1 1.25 1.8 1.8 4.35 1.8 2.4.05 4.25-1.8 1.8-1.8 1.85-4.3-.05-2.55-1.85-4.35-.55-.55-1.15-.9-.35-2.45-2.2-4.3z"/></defs><use xlink:href="#b"/><use transform="translate(-4.5 -5)" xlink:href="#c"/><use transform="translate(-53.05 -5)" xlink:href="#d"/><use transform="matrix(.5625 0 0 .6811 -.1 -8.1)" xlink:href="#e"/><use transform="matrix(1 0 0 1.21088 -.1 -8.1)" xlink:href="#f"/><use xlink:href="#g"/><g transform="matrix(.5 0 0 .5 4.1 -6.7)"><use xlink:href="#h"/></g><g><use xlink:href="#i"/></g></svg>
